flaticon/interaction/calendar-25.svg

<svg xmlns="http://www.w3.org/2000/svg" width="32" height="32" viewBox="0 0 24 24">
    <path d="M 23.976562 17.941406 C 23.929688 17.792969 23.800781 17.683594 23.644531 17.660156 L 20.484375 17.21875 L 19.070312 14.460938 C 18.933594 14.191406 18.488281 14.191406 18.347656 14.460938 L 16.9375 17.21875 L 13.773438 17.660156 C 13.617188 17.683594 13.488281 17.792969 13.441406 17.941406 C 13.394531 18.089844 13.4375 18.253906 13.550781 18.359375 L 15.832031 20.503906 L 15.292969 23.523438 C 15.269531 23.675781 15.328125 23.828125 15.453125 23.917969 C 15.578125 24.011719 15.742188 24.027344 15.878906 23.957031 L 18.710938 22.519531 L 21.542969 23.957031 C 21.601562 23.984375 21.664062 24 21.726562 24 C 21.8125 24 21.898438 23.972656 21.96875 23.917969 C 22.09375 23.828125 22.152344 23.675781 22.128906 23.523438 L 21.589844 20.503906 L 23.867188 18.359375 C 23.980469 18.253906 24.023438 18.089844 23.976562 17.941406 Z M 20.871094 20.058594 C 20.769531 20.152344 20.726562 20.292969 20.75 20.425781 L 21.183594 22.863281 L 18.894531 21.703125 C 18.835938 21.671875 18.773438 21.65625 18.710938 21.65625 C 18.644531 21.65625 18.582031 21.671875 18.527344 21.703125 L 16.238281 22.863281 L 16.667969 20.425781 C 16.695312 20.292969 16.648438 20.152344 16.546875 20.058594 L 14.726562 18.347656 L 17.257812 17.996094 C 17.390625 17.976562 17.503906 17.894531 17.5625 17.777344 L 18.710938 15.539062 L 19.855469 17.777344 C 19.914062 17.894531 20.03125 17.976562 20.160156 17.996094 L 22.691406 18.347656 Z M 20.871094 20.058594"/>
    <path d="M 14.644531 13.011719 L 18.304688 13.011719 L 18.304688 8.539062 L 2.851562 8.539062 L 2.851562 20.332031 L 10.984375 20.332031 L 10.984375 16.671875 L 14.644531 16.671875 Z M 14.644531 9.351562 L 17.488281 9.351562 L 17.488281 12.199219 L 14.644531 12.199219 Z M 10.984375 9.351562 L 13.832031 9.351562 L 13.832031 12.199219 L 10.984375 12.199219 Z M 7.324219 9.351562 L 10.171875 9.351562 L 10.171875 12.199219 L 7.324219 12.199219 Z M 10.171875 15.859375 L 7.324219 15.859375 L 7.324219 13.011719 L 10.171875 13.011719 Z M 3.664062 9.351562 L 6.511719 9.351562 L 6.511719 12.199219 L 3.664062 12.199219 Z M 3.664062 13.011719 L 6.511719 13.011719 L 6.511719 15.859375 L 3.664062 15.859375 Z M 6.511719 19.519531 L 3.664062 19.519531 L 3.664062 16.671875 L 6.511719 16.671875 Z M 10.171875 19.519531 L 7.324219 19.519531 L 7.324219 16.671875 L 10.171875 16.671875 Z M 13.832031 15.859375 L 10.984375 15.859375 L 10.984375 13.011719 L 13.832031 13.011719 Z M 13.832031 15.859375"/>
    <path d="M 10.578125 22.367188 L 0.816406 22.367188 L 0.816406 6.507812 L 20.335938 6.507812 L 20.335938 13.417969 C 20.335938 13.644531 20.519531 13.824219 20.742188 13.824219 C 20.96875 13.824219 21.148438 13.644531 21.148438 13.417969 L 21.148438 2.035156 C 21.148438 1.808594 20.96875 1.625 20.742188 1.625 L 18.710938 1.625 L 18.710938 0.40625 C 18.710938 0.183594 18.527344 0 18.304688 0 L 15.457031 0 C 15.230469 0 15.050781 0.183594 15.050781 0.40625 L 15.050781 1.625 L 6.105469 1.625 L 6.105469 0.40625 C 6.105469 0.183594 5.921875 0 5.695312 0 L 2.851562 0 C 2.625 0 2.445312 0.183594 2.445312 0.40625 L 2.445312 1.625 L 0.410156 1.625 C 0.1875 1.625 0.00390625 1.808594 0.00390625 2.035156 L 0.00390625 22.773438 C 0.00390625 22.996094 0.1875 23.179688 0.410156 23.179688 L 10.578125 23.179688 C 10.800781 23.179688 10.984375 22.996094 10.984375 22.773438 C 10.984375 22.546875 10.800781 22.367188 10.578125 22.367188 Z M 15.863281 0.8125 L 17.898438 0.8125 L 17.898438 3.253906 L 15.863281 3.253906 Z M 3.257812 0.8125 L 5.289062 0.8125 L 5.289062 3.253906 L 3.257812 3.253906 Z M 0.816406 2.441406 L 2.445312 2.441406 L 2.445312 3.660156 C 2.445312 3.882812 2.625 4.066406 2.851562 4.066406 L 5.695312 4.066406 C 5.921875 4.066406 6.105469 3.882812 6.105469 3.660156 L 6.105469 2.441406 L 15.050781 2.441406 L 15.050781 3.660156 C 15.050781 3.882812 15.230469 4.066406 15.457031 4.066406 L 18.304688 4.066406 C 18.527344 4.066406 18.710938 3.882812 18.710938 3.660156 L 18.710938 2.441406 L 20.335938 2.441406 L 20.335938 5.691406 L 0.816406 5.691406 Z M 0.816406 2.441406"/>
</svg>

<svg xmlns="http://www.w3.org/2000/svg" width="32" height="32" viewBox="0 0 24 24">
    <path d="M23.977 17.941a.411.411 0 0 0-.332-.28l-3.16-.442-1.415-2.758c-.136-.27-.582-.27-.722 0l-1.41 2.758-3.165.441a.406.406 0 1 0-.223.7l2.282 2.144-.539 3.02a.405.405 0 0 0 .16.394c.125.094.29.11.426.039l2.832-1.437 2.832 1.437a.436.436 0 0 0 .184.043.394.394 0 0 0 .242-.082.405.405 0 0 0 .16-.395l-.54-3.02 2.278-2.144a.406.406 0 0 0 .11-.418zM20.87 20.06a.405.405 0 0 0-.121.367l.434 2.437-2.29-1.16a.389.389 0 0 0-.367 0l-2.289 1.16.43-2.437a.395.395 0 0 0-.121-.367l-1.82-1.711 2.53-.352a.405.405 0 0 0 .305-.219l1.149-2.238 1.144 2.238c.06.118.176.2.305.22l2.531.35zm0 0"/>
    <path d="M14.645 13.012h3.66V8.539H2.852v11.793h8.132v-3.66h3.66zm0-3.66h2.843v2.847h-2.843zm-3.66 0h2.847v2.847h-2.848zm-3.66 0h2.847v2.847H7.324zm2.847 6.507H7.324v-2.847h2.848zM3.664 9.352h2.848v2.847H3.664zm0 3.66h2.848v2.847H3.664zm2.848 6.508H3.664v-2.848h2.848zm3.66 0H7.324v-2.848h2.848zm3.66-3.66h-2.848v-2.848h2.848zm0 0"/>
    <path d="M10.578 22.367H.816V6.507h19.52v6.911a.406.406 0 1 0 .812 0V2.035c0-.226-.18-.41-.406-.41h-2.031V.406A.408.408 0 0 0 18.305 0h-2.848a.406.406 0 0 0-.406.406v1.219H6.105V.406A.41.41 0 0 0 5.695 0H2.852a.406.406 0 0 0-.407.406v1.219H.41a.41.41 0 0 0-.406.41v20.738c0 .223.183.407.406.407h10.168a.406.406 0 1 0 0-.813zM15.863.812h2.035v2.442h-2.035zm-12.605 0h2.031v2.442H3.258zM.816 2.442h1.63V3.66c0 .223.179.406.406.406h2.843a.41.41 0 0 0 .41-.406V2.441h8.946v1.22c0 .222.18.405.406.405h2.848a.408.408 0 0 0 .406-.406V2.441h1.625v3.25H.816zm0 0"/>
</svg>
